storage/app/icons/phosphoricons/bold/slack-logo-bold.svg

<svg xmlns="http://www.w3.org/2000/svg" fill="currentColor" viewBox="0 0 256 256"><path d="M236 104a36 36 0 0 0-48-33.94V56a36 36 0 0 0-60-26.8A36 36 0 0 0 70.06 68H56a36 36 0 0 0-26.8 60A36 36 0 0 0 68 185.94V200a36 36 0 0 0 60 26.8 36 36 0 0 0 57.94-38.8H200a36 36 0 0 0 26.8-60 35.82 35.82 0 0 0 9.2-24m-36-12a12 12 0 0 1 0 24h-12v-12a12 12 0 0 1 12-12m-48-48a12 12 0 0 1 12 12v48a12 12 0 0 1-12 12h-12V56a12 12 0 0 1 12-12M92 56a12 12 0 0 1 24 0v12h-12a12 12 0 0 1-12-12M56 92h48a12 12 0 0 1 12 12v12H56a12 12 0 0 1 0-24m0 72a12 12 0 0 1 0-24h12v12a12 12 0 0 1-12 12m48 48a12 12 0 0 1-12-12v-48a12 12 0 0 1 12-12h12v60a12 12 0 0 1-12 12m60-12a12 12 0 0 1-24 0v-12h12a12 12 0 0 1 12 12m36-36h-48a12 12 0 0 1-12-12v-12h60a12 12 0 0 1 0 24"/></svg>

<svg xmlns="http://www.w3.org/2000/svg" viewBox="0 0 256 256" fill="currentColor"><path d="M236,104a36,36,0,0,0-48-33.94V56a36,36,0,0,0-60-26.8A36,36,0,0,0,70.06,68H56a36,36,0,0,0-26.8,60A36,36,0,0,0,68,185.94V200a36,36,0,0,0,60,26.8A36,36,0,0,0,185.94,188H200a36,36,0,0,0,26.8-60A35.82,35.82,0,0,0,236,104ZM200,92a12,12,0,0,1,0,24H188V104A12,12,0,0,1,200,92ZM152,44a12,12,0,0,1,12,12v48a12,12,0,0,1-12,12H140V56A12,12,0,0,1,152,44ZM92,56a12,12,0,0,1,24,0V68H104A12,12,0,0,1,92,56ZM56,92h48a12,12,0,0,1,12,12v12H56a12,12,0,0,1,0-24Zm0,72a12,12,0,0,1,0-24H68v12A12,12,0,0,1,56,164Zm48,48a12,12,0,0,1-12-12V152a12,12,0,0,1,12-12h12v60A12,12,0,0,1,104,212Zm60-12a12,12,0,0,1-24,0V188h12A12,12,0,0,1,164,200Zm36-36H152a12,12,0,0,1-12-12V140h60a12,12,0,0,1,0,24Z"/></svg>
